X:50
T: Der betruegerische Freier
N: Q0042D
O: Mitteleuropa, Deutschland (BRD) , Rheinprovinz
R: Ballade, Braut - Werbung, Betrug; tragisch
M: 2/4
L: 1/16
K: A
=G | =G3=cc2A2 | A3=GG2z
G | =c3cd3d | d4e2z
=c | B3AB2=c2 | d4e4 |
A3B=c2A2 | B2E2E2
=c2 | B3AB2=c2 | d4e2z
d | =c2A2B2G2 | A4z3

@@@ Tune index: 786
